svgs/sharp-regular/mug-tea.svg

<svg xmlns="http://www.w3.org/2000/svg" viewBox="0 0 576 512"><!--! Font Awesome Pro 6.6.0 by @fontawesome - https://fontawesome.com License - https://fontawesome.com/license (Commercial License) Copyright 2024 Fonticons, Inc. --><path d="M152 112l0 24-40 40 0 112 112 0 0-112-40-40 0-24 184 0 0 288L80 400l0-288 72 0zM80 64L32 64l0 48 0 288 0 48 48 0 288 0 48 0 0-48 0-80 32 0c70.7 0 128-57.3 128-128s-57.3-128-128-128l-32 0-32 0-16 0L80 64zM448 272l-32 0 0-160 32 0c44.2 0 80 35.8 80 80s-35.8 80-80 80z"/></svg>

<svg xmlns="http://www.w3.org/2000/svg" viewBox="0 0 576 512"><!--! Font Awesome Pro 6.4.2 by @fontawesome - https://fontawesome.com License - https://fontawesome.com/license (Commercial License) Copyright 2023 Fonticons, Inc. --><path d="M152 112v24l-40 40V288H224V176l-40-40V112H368V400H80V112h72zM80 64H32v48V400v48H80 368h48V400 320h32c70.7 0 128-57.3 128-128s-57.3-128-128-128H416 384 368 80zM448 272H416V112h32c44.2 0 80 35.8 80 80s-35.8 80-80 80z"/></svg>
